X: 18321
T: Humours Of Westmeath, The
R: slip jig
M: 9/8
K: Dmajor
|:d2d dAG FED|d2d dAF G2E|ABc dAG FGA|=cBc E2F G2E:|
|:d2g fdf ece|d2g fdf g2e|d2g fdf ece|=cBc E2F G2E|
d2g fdf ece|d2g fdf g2e|afd gec d2B|=cBc E2F G2E:|

